X:1
T: Lilli Burleo
C:
R:Jig
Q:180
K:D
M:6/8
L:1/16
D2E2D2 F4F2|E2F2E2 G6|F2A2D2 G4F2|E2D2C2D6|D2E2D2 F4F2|E2F2E2 G6|F2A2D2 G4F2|E2D2C2 D6|
d4c2d4A2|A2B2=c2B4A2|A2B2c2 d2A2B2|A2G2F2E4A2|B2A2G2 F2G2A2|B2A2G2 F2G2A2|B2d2D2G4F2|E2D2C2D6|
D2E2D2F4F2|E2F2E2G6|F2A2D2G4F2|E2D2C2D6|D2E2D2F4F2|E2F2E2G6|F2A2D2G4F2|E2D2C2D6|
d4c2d4A2|A2B2=c2B4A2|A2B2c2 d2A2B2|A2G2F2E4A2|B2A2G2 F2G2A2|B2A2G2 F2G2A2|B2d2D2G4F2|E2D2C2D4||
